icon/ir/garage.svg

<svg width="24" height="24" stroke-width="1.5" fill="none" xmlns="http://www.w3.org/2000/svg"><path d="M6 20H3V6l9-2 9 2v14h-3M6 20h12M6 20v-4m12 4v-4M6 12V8h12v4M6 12h12M6 12v4m12-4v4M6 16h12" stroke="currentColor" stroke-linecap="round" stroke-linejoin="round"/></svg>

<svg stroke-width="1.5" viewBox="0 0 24 24" fill="none" xmlns="http://www.w3.org/2000/svg" height="1em" width="1em">
  <path d="M6 20H3V6L12 4L21 6V20H18M6 20H18M6 20V16M18 20V16M6 12V8L18 8V12M6 12L18 12M6 12V16M18 12V16M6 16H18" stroke="currentColor" stroke-linecap="round" stroke-linejoin="round"/>
</svg>
